!!!ONB: MCCC : IJH0418_03 : Extracted Monophonic Melody
!!!COM: Haydn, Joseph
!!!OPR: String Quartet in C major
!!!OMV: 3
!!!SCT: Hob.III:39 ; Op.33 No.3
!!!ODT: 1781///
**kern
*thru
*k[b-]
*F:
*clefF
*M3/4
8.cc
32dd
32cc
4b-
4a
=1
8.g
16e
8f
8g
8a
8b-
=2
8.cc
32b-
32cc
8dd
8d
8b-
8g
=3
4f
8e
4.r
=4
8.b-
32cc
32b-
4a
4g
=5
8.cc
32dd
32ee
8ff
8gg
8aa
8ff
=6
8dd
16cc
16b-
8a
8cc
8e
8g
=7
4g
8f
4.r
=8
8.cc
32dd
32cc
4ff
4ee
=9
8.dd
32ee
32dd
4aa
4gg
=10
2ff
4ee
=11
4ee-
4aa-
8ff
8dd
=12
2b
4r
=13
8dd
16dd
16b
16cc
16gg
8gg
8dd
16dd
16b
=14
16cc
16gg
8gg
8dd
16dd
16b
16cc
16gg
8gg
=15
16aa
16bb
8ccc
8aa
8ff
8dd
8b
=16
4cc
4r
8ee
16ee
16a
=17
16a
16aa
8aa
8dd
16dd
16g
16g
16gg
8gg
=18
32c
16.e
32e
16.g
32g
16.cc
32cc
16.ee
32ee
16.gg
32gg
16.ccc
=19
4.gg#
8aa
8ff
8dd
=20
2cc
8.dd
16cc
=21
32c
16.e
32e
16.g
32g
16.cc
32cc
16.ee
32ee
16.gg
32gg
16.ccc
=22
2aa-
4gg
=23
4ff#
4ff
4ee
=24
3..dd[
24dd]
8cc#
=25
8dd
8r
8ff
8r
8.b
16cc
=26
4cc
4r
8.b
16cc
=27
4cc
4r
8.b
16cc
=28
4cc
2r
=29
8.cc
32dd
32cc
4b-
4a
=30
8.g
16e
8f
24r
24f#
24g
24r
24g#
24a
24r
24a
24b-
=31
24r
24b
24cc
24dd
24ee
24ff
8cc#
24dd
24ee
24ff#
24gg
24aa
24bb
24ccc
24ccc#
24ddd
=32
8.ff
32gg
32ff
8ee
4.r
=33
8.b-
32cc
32b-
4a
4g
=34
8.cc
32dd
32ee
8ff
32ee
32gg
32bb-
32gg
32ff
32aa
32ccc
32aa
32ee
32gg
32ff
32aa
=35
32cc#
32ee
32dd
32ff
16dd
32cc
32b-
32a
32b-
32a
32b-
16b
16cc
16e
16e
16f
16g
=36
4g
8f
4.r
=37
8.cc
32dd
32cc
4ff
4ee
=38
32dd
32cc#
32ee
32dd
32ff
32ee
32gg
32ff
4aa
16gg
16bb
24ccc
24gg
24ee
=39
4ff
32ff
32bb
32ddd
32bb
32fff
32ddd
32bb
32ff
4ee
=40
4ee-
4aa-
8ff
8dd
=41
4cc
4b
4r
=42
8dd
16dd
16b
16cc
16gg
8gg
24cc#
24dd
24ee
24ff
24dd
24b
=43
24b
24cc
24ee
24ff#
24aa
24gg
32dd
32ff
32ee
32gg
32ff
32dd
32cc
32b
32cc
32ee
32dd
32ff
32ee
32gg
32ee
32cc
=44
32a
32aa
32b
32bb
32cc
32ccc
32cc
32ccc
32a
32aa
32a
32aa
32f
32ff
32f
32ff
8dd
8b
=45
4cc
4r
8ee
16ee
16a
=46
16a
16aa
8aa
24dd
24cc#
24cc
24b
24b-
24a
8g
8gg
=47
32c
16.e
32e
16.g
32g
16.cc
32cc
16.ee
32ee
16.gg
32gg
16.ccc
=48
4.gg#
8aa
8ff
8dd
=49
2cc
8.dd
16cc
=50
24c
24e
24d
24f
24e
24a
24g
24cc
24b
24dd
24cc
24ee
24dd
24ff
24ee
24aa-
24gg
24ccc
=51
2aa-
4gg
=52
4ff#
4ff
4ee
=53
4dd[
32dd]
32cc#
32dd
32cc#
32dd
32cc#
32dd
32cc#
8dd
8cc#
=54
8dd
8r
8ff
8r
8.b
16cc
=55
4cc
4r
8.b
16cc
=56
4cc
4r
8.b
16cc
=57
4cc
4r
8.cc
16dd-
=58
6..dd-[
48dd-]
16cc
16b-
16a-
16g
16f
16e-
16d-
=59
4.c
8cc
8cc
8cc
=60
6..ee-[
48ee-]
16dd
16cc
16b-
16a
16g
16f
16e-
=61
4.d
8dd
8dd
8dd
=62
4.bb-
8aa
8gg
8ff
=63
4ff
4ee
4r
=64
8.cc
32dd
32cc
4b-
4a
=65
8.g
16e
8f
8g
8a
8b-
=66
8.cc
32b-
32cc
8dd
8d
8b-
8g
=67
4f
8e
4.r
=68
8.b-
32cc
32b-
4a
4g
=69
8.cc
32dd
32ee
16ff
16gg
16aa
16bb-
16ccc
16ddd
16eee
16fff
=70
8r
8d
8r
8b-
8r
8e
=71
12r
12e
12f
12r
12cc#
12dd
12r
12f#
12g
=72
24r
24g#
24a
24b-
24a
24cc
24r
24ee
24ff
24gg
24ff
24aa
24gg
24ff
24ee
24dd
24cc
24b
=73
4b
8cc
4.r
=74
8gg
16gg
16ee
16ff
16ccc
8ccc
8gg
16gg
16ee
=75
32ff
32gg
32aa
32bb-
16ccc
16ccc
16ccc
16bb-
16gg
16ee
32ff
32gg
32aa
32bb-
32ccc
32ddd
32eee
32fff
=76
16eee
16ddd
16ccc#
16ddd
16ccc
16bb-
16aa
16bb-
16bb-
16gg
16ff
16ee
=77
4ff
4r
8a
16a
16d
=78
16d
16dd
8dd
24g
24f#
24f
24e
24e-
24d
8c
8cc
=79
32A
16.c
32c
16.f
32f
16.a
32a
16.cc
32cc
16.ff
32ff
16.aa
=80
4.cc#
8dd
8b-
8g
=81
2f
8.g
16f
=82
24A
24c
24B-
24d
24c
24f
24e
24g
24f
24a
24g
24b-
24a
24cc
24b-
24dd
24cc
24ff
=83
2dd-
4cc
=84
4b
4b-
4a
=85
3..g[
24g]
8f#
=86
8g
8r
8b-
8r
8.e
16f
=87
8f
4.r
8.e
16f
=88
8f
4.r
8.e
16f
=89
8f
4.r
8f
8r
=90
8f
3..r
24r
==
*-
